public/img/logo-new.svg

<svg width="249" height="55" viewBox="0 0 249 55" fill="none" xmlns="http://www.w3.org/2000/svg">
<g clip-path="url(#clip0)">
<path d="M164.412 52.5761H159.468L157.942 54.9127H156.932L162.742 46.1809H163.663L165.938 54.9127H165.002L164.412 52.5761ZM164.236 51.8286L163.035 47.1064L159.951 51.8286H164.236ZM172.546 46.1669C173.374 46.118 174.194 46.3469 174.874 46.8165C175.149 47.034 175.368 47.313 175.513 47.6306C175.658 47.9482 175.724 48.2953 175.707 48.6432C175.734 49.129 175.65 49.6145 175.46 50.0633C175.271 50.5122 174.981 50.9127 174.612 51.2349C173.885 51.8472 172.88 52.1534 171.599 52.1534H169.099L168.53 54.9127H167.608L169.374 46.1809L172.546 46.1669ZM171.614 51.3431C172.445 51.396 173.27 51.1628 173.948 50.683C174.228 50.4429 174.448 50.1421 174.591 49.804C174.733 49.4659 174.795 49.0997 174.771 48.7341C174.786 48.4841 174.741 48.2341 174.637 48.0055C174.534 47.7768 174.376 47.5762 174.178 47.4208C173.674 47.0896 173.075 46.9313 172.472 46.9702H170.148L169.251 51.3431H171.614ZM183.657 46.9667H180.524L178.932 54.9127H178.006L179.596 46.9667H176.502L176.664 46.1669H183.802L183.657 46.9667ZM183.304 51.1405H186.613L186.462 51.9159H183.152L183.304 51.1405ZM192.642 50.442L195.217 54.9127H194.221L191.883 50.8891H189.834L189.029 54.9127H188.104L189.87 46.1809H190.792L189.997 50.1067H191.968L195.757 46.1809H196.817L192.642 50.442ZM205.527 46.1669L203.761 54.8987H202.853L204.456 46.9528H200.176L199.469 49.8762C199.236 50.9026 198.928 51.9111 198.548 52.8939C198.334 53.4974 197.984 54.0446 197.523 54.4936C197.152 54.819 196.67 54.9948 196.174 54.986C195.936 54.9851 195.699 54.9558 195.468 54.8987L195.697 54.0744C195.825 54.1074 195.957 54.1239 196.089 54.1233C196.274 54.1246 196.457 54.0887 196.627 54.0178C196.797 53.947 196.95 53.8426 197.078 53.7112C197.431 53.3244 197.702 52.872 197.877 52.3805C198.185 51.5689 198.436 50.7367 198.625 49.8901L199.522 46.1529L205.527 46.1669ZM212.943 52.5761H207.999L206.473 54.9127H205.459L211.273 46.1809H212.195L214.469 54.9127H213.533L212.943 52.5761ZM212.767 51.8286L211.559 47.1064L208.476 51.8286H212.767ZM220.269 54.9895C219.502 55.0085 218.742 54.8519 218.047 54.532C217.459 54.2549 216.967 53.8111 216.634 53.2571C216.303 52.677 216.136 52.0196 216.15 51.3536C216.138 50.4294 216.367 49.5176 216.814 48.7061C217.252 47.9099 217.905 47.2496 218.7 46.7991C219.562 46.3205 220.538 46.0792 221.526 46.1005C222.168 46.0894 222.806 46.2021 223.405 46.4323C223.91 46.6193 224.349 46.9469 224.669 47.3754L224.012 47.9482C223.447 47.2683 222.592 46.9272 221.448 46.9248C220.641 46.9092 219.845 47.1147 219.149 47.5186C218.497 47.8993 217.964 48.4504 217.609 49.1113C217.243 49.7865 217.056 50.5422 217.065 51.3082C217.045 51.6976 217.111 52.0866 217.258 52.4484C217.405 52.8102 217.63 53.1362 217.916 53.4038C218.486 53.9208 219.297 54.1792 220.35 54.1792C220.864 54.1993 221.378 54.1169 221.86 53.9369C222.341 53.7569 222.781 53.483 223.154 53.1314L223.698 53.7426C223.283 54.1594 222.777 54.4761 222.218 54.6682C221.594 54.8893 220.935 54.9993 220.272 54.993L220.269 54.9895ZM232.588 46.9563H229.455L227.862 54.9022H226.951L228.512 46.9667H225.418L225.58 46.1669H232.718L232.588 46.9563ZM235.152 46.9563L234.516 50.0788H239.107L238.956 50.8646H234.364L233.707 54.1129H239.026L238.86 54.9127H232.602L234.368 46.1809H240.432L240.269 46.9807L235.152 46.9563ZM245.864 46.1564C246.691 46.1075 247.51 46.3364 248.188 46.8061C248.463 47.0235 248.682 47.3026 248.827 47.6201C248.972 47.9377 249.039 48.2848 249.021 48.6328C249.049 49.1182 248.966 49.6036 248.777 50.0525C248.588 50.5014 248.298 50.9021 247.93 51.2244C247.2 51.8368 246.196 52.143 244.917 52.143H242.392L241.823 54.9022H240.902L242.668 46.1704L245.864 46.1564ZM244.907 51.3431C245.735 51.3917 246.556 51.1574 247.231 50.6795C247.51 50.4393 247.73 50.1383 247.872 49.8002C248.014 49.462 248.075 49.0959 248.05 48.7306C248.066 48.4806 248.02 48.2306 247.916 48.002C247.813 47.7733 247.655 47.5727 247.457 47.4173C246.954 47.0861 246.354 46.9278 245.751 46.9667H243.427L242.544 51.3431H244.907Z" fill="white"/>
<path d="M160.734 12.235V2.50073L162.486 2.9024V12.6401L160.734 12.235Z" fill="#40BBC1"/>
<path d="M163.369 12.8392V3.10498L165.121 3.50664V13.2444L163.369 12.8392Z" fill="#40BBC1"/>
<path d="M165.996 13.4575V3.71973L167.748 4.12488V13.8591L165.996 13.4575Z" fill="#40BBC1"/>
<path d="M13.7742 24.3617C14.3181 23.8728 14.7102 23.52 15.5402 23.5235C16.3701 23.527 16.7869 23.8728 17.3379 24.3827C17.9771 24.959 18.7718 25.675 20.2693 25.682C21.7668 25.689 22.6039 24.9625 23.2537 24.3862C23.4127 24.243 23.561 24.1138 23.7058 24.002L22.4626 22.7621L22.0776 23.1113C21.5267 23.6073 21.1276 23.9636 20.2764 23.9601C19.4252 23.9566 19.0614 23.6108 18.5104 23.1148C17.8676 22.5316 17.0659 21.8086 15.5366 21.8051C14.0073 21.8016 13.2127 22.5036 12.5734 23.0939C12.4286 23.2266 12.2944 23.3454 12.1602 23.4432L13.421 24.6726C13.5446 24.5678 13.6612 24.463 13.7742 24.3617Z" fill="#40BBC1"/>
<path d="M13.7742 16.9083C14.3146 16.4159 14.7066 16.0666 15.5402 16.0666C16.3737 16.0666 16.7869 16.4159 17.3379 16.9258C17.9771 17.5021 18.7718 18.2181 20.2693 18.2251C21.7668 18.2321 22.6039 17.5056 23.2537 16.9293C23.4127 16.7861 23.561 16.6569 23.7058 16.5451L22.4626 15.3052L22.0776 15.6544C21.5267 16.1504 21.1276 16.5067 20.2764 16.5032C19.4252 16.4997 19.0614 16.1539 18.5104 15.6579C17.8676 15.0746 17.0659 14.3517 15.5366 14.3482C14.0073 14.3447 13.2127 15.0467 12.5734 15.637C12.4286 15.7697 12.2944 15.8885 12.1602 15.9862L13.421 17.2192C13.5446 17.1144 13.6612 17.0096 13.7742 16.9083Z" fill="#40BBC1"/>
<path d="M13.7734 20.6349C14.3173 20.146 14.7093 19.7932 15.5393 19.7967C16.3693 19.8002 16.7861 20.146 17.337 20.6559C17.9763 21.2322 18.771 21.9482 20.2685 21.9552C21.766 21.9622 22.6031 21.2357 23.2635 20.6594C23.4224 20.5162 23.5708 20.387 23.7156 20.2752L22.4724 19.0353L22.0874 19.3845C21.5364 19.8805 21.1373 20.2368 20.2861 20.2333C19.435 20.2298 19.0712 19.884 18.5202 19.388C17.8774 18.8047 17.0757 18.0818 15.5464 18.0783C14.0171 18.0748 13.2224 18.7768 12.5832 19.3671C12.4383 19.4998 12.3041 19.6186 12.1699 19.7164L13.4202 20.9563C13.5438 20.8515 13.6604 20.7467 13.7734 20.6454" fill="#40BBC1"/>
<path d="M234.02 10.4467L228.119 6.60474L212.25 38.0393L218.166 40.7951L220.013 40.0406L223.149 34.1589H237.005L239.06 38.0707H247.321V36.9146L234.02 10.4467ZM226.063 27.3585L230.026 19.1681L234.095 27.3585H226.063Z" fill="white"/>
<path d="M54.9169 10.4467L49.0152 6.60474L33.1465 38.0393L39.0624 40.7951L40.9095 40.0406L44.0458 34.1589H57.9013L59.9604 38.0707H68.2179V36.9146L54.9169 10.4467ZM46.9737 27.3585L50.9365 19.1681L55.0017 27.3585H46.9737Z" fill="white"/>
<path d="M95.2946 22.4128C96.1252 21.7697 96.8028 20.954 97.2794 20.0233C97.7561 19.0926 98.0202 18.0698 98.053 17.027C98.053 11.6413 93.1861 7.14612 87.1042 7.14612H72.0938V38.6156H88.5593C95.7396 38.6156 99.4516 34.2113 99.5081 28.7801C99.5081 26.0208 98.1554 23.7051 95.2946 22.4128ZM80.7857 13.3667H86.4084C90.3606 13.3667 90.4736 19.9295 86.4579 19.9295H80.7857V13.3667ZM87.966 32.1506H80.7857V25.6681H87.913C92.0877 25.6681 92.1124 32.1506 87.966 32.1506Z" fill="white"/>
<path d="M193.653 10.4782L188.603 7.14612L176.57 31.7175H173.006V35.308V39.1814L179.335 41.3923L180.472 40.4912V38.5038H201.243H208.621V31.7175H203.98L193.653 10.4782ZM185.657 31.6267L190.527 20.3661L195.596 31.6267H185.657Z" fill="white"/>
<path d="M35.7213 13.3806V12.3677L34.5699 7.14612H0V7.95294L1.25381 13.3806" fill="white"/>
<path d="M122.817 7.14612H106.461V38.6156L114.097 41.284L115.467 40.4458L115.45 29.1992H122.817C139.636 29.1992 139.636 7.19502 122.817 7.14612ZM122.768 23.2127H115.446V13.3352H122.768C129.98 13.3352 129.708 23.2162 122.768 23.2162" fill="white"/>
<path d="M141.32 7.68396V39.0137L147.12 41.2386L160.654 26.4923L160.625 37.8437C160.689 37.8437 166.227 39.5481 166.227 39.5481L167.64 38.7343V15.4693L160.622 13.6845L148.26 27.1839V7.68396" fill="white"/>
<path d="M13.8906 26.5867V38.6156L20.474 41.2841L21.8267 40.4458V26.5867" fill="white"/>
<path d="M234.36 0.181553C235.03 0.401582 235.618 0.813001 236.051 1.36378C236.484 1.91457 236.742 2.57998 236.793 3.27587C236.844 3.97176 236.685 4.66689 236.336 5.27334C235.987 5.87979 235.464 6.37034 234.833 6.68294C234.203 6.99554 233.492 7.11617 232.792 7.02956C232.092 6.94296 231.434 6.65301 230.9 6.19638C230.367 5.73975 229.983 5.13696 229.796 4.46422C229.609 3.79147 229.627 3.079 229.85 2.4169C229.997 1.97699 230.231 1.57012 230.537 1.2196C230.844 0.869079 231.217 0.581779 231.636 0.374148C232.055 0.166517 232.511 0.0426319 232.979 0.00958379C233.446 -0.0234643 233.916 0.0349737 234.36 0.181553Z" fill="#40BBC1"/>
</g>
<defs>
<clipPath id="clip0">
<rect width="249" height="55" fill="white"/>
</clipPath>
</defs>
</svg>

<svg width="249" height="55" fill="none" xmlns="http://www.w3.org/2000/svg"><g clip-path="url(#clip0)"><path d="M164.412 52.576h-4.944l-1.526 2.337h-1.01l5.81-8.732h.921l2.275 8.732h-.936l-.59-2.337zm-.176-.747l-1.201-4.723-3.084 4.723h4.285zm8.31-5.662a3.712 3.712 0 012.328.65 2.18 2.18 0 01.833 1.827 3.21 3.21 0 01-1.095 2.592c-.727.611-1.732.917-3.013.917h-2.5l-.569 2.76h-.922l1.766-8.732 3.172-.014zm-.932 5.176a3.642 3.642 0 002.334-.66 2.363 2.363 0 00.823-1.949 1.558 1.558 0 00-.593-1.313 2.78 2.78 0 00-1.706-.45h-2.324l-.897 4.372h2.363zm12.043-4.376h-3.133l-1.592 7.946h-.926l1.59-7.946h-3.094l.162-.8h7.138l-.145.8zm-.353 4.174h3.309l-.151.775h-3.31l.152-.775zm9.338-.699l2.575 4.47h-.996l-2.338-4.023h-2.049l-.805 4.024h-.925l1.766-8.732h.922l-.795 3.926h1.971l3.789-3.926h1.06l-4.175 4.261zm12.885-4.275l-1.766 8.732h-.908l1.603-7.946h-4.28l-.707 2.923a21.67 21.67 0 01-.921 3.018 4.185 4.185 0 01-1.025 1.6 1.994 1.994 0 01-1.349.492 2.99 2.99 0 01-.706-.087l.229-.825c.128.033.26.05.392.05a1.373 1.373 0 00.989-.413c.353-.387.624-.839.799-1.33a18.23 18.23 0 00.748-2.49l.897-3.738 6.005.014zm7.416 6.41h-4.944l-1.526 2.336h-1.014l5.814-8.732h.922l2.274 8.732h-.936l-.59-2.337zm-.176-.748l-1.208-4.723-3.083 4.723h4.291zm7.502 3.16a5.017 5.017 0 01-2.222-.457 3.278 3.278 0 01-1.413-1.275 3.683 3.683 0 01-.484-1.903 5.343 5.343 0 01.664-2.648A4.919 4.919 0 01218.7 46.8a5.576 5.576 0 012.826-.699 4.997 4.997 0 011.879.332c.505.187.944.515 1.264.943l-.657.573c-.565-.68-1.42-1.02-2.564-1.023a4.412 4.412 0 00-2.299.594 4.084 4.084 0 00-1.54 1.592 4.498 4.498 0 00-.544 2.197c-.02.39.046.779.193 1.14.147.362.372.688.658.956.57.517 1.381.775 2.434.775a3.858 3.858 0 002.804-1.048l.544.612a3.856 3.856 0 01-1.48.925 5.667 5.667 0 01-1.946.325l-.003-.004zm12.319-8.033h-3.133l-1.593 7.946h-.911l1.561-7.935h-3.094l.162-.8h7.138l-.13.79zm2.564 0l-.636 3.123h4.591l-.151.786h-4.592l-.657 3.248h5.319l-.166.8h-6.258l1.766-8.732h6.064l-.163.8-5.117-.025zm10.712-.8a3.699 3.699 0 012.324.65c.275.218.494.497.639.814.145.318.212.665.194 1.013a3.185 3.185 0 01-1.091 2.591c-.73.613-1.734.919-3.013.919h-2.525l-.569 2.76h-.921l1.766-8.733 3.196-.014zm-.957 5.187a3.654 3.654 0 002.324-.664 2.348 2.348 0 00.819-1.949 1.558 1.558 0 00-.593-1.313 2.779 2.779 0 00-1.706-.45h-2.324l-.883 4.376h2.363z" fill="#fff"/><path d="M160.734 12.235V2.501l1.752.401v9.738l-1.752-.405zm2.635.605V3.104l1.752.402v9.737l-1.752-.405zm2.627.617V3.72l1.752.405v9.734l-1.752-.402zM13.774 24.362c.544-.49.936-.842 1.766-.838.83.003 1.247.349 1.798.859.64.576 1.434 1.292 2.931 1.299 1.498.007 2.335-.72 2.985-1.296.159-.143.307-.272.452-.384l-1.243-1.24-.385.35c-.551.495-.95.852-1.802.848-.85-.003-1.215-.35-1.766-.845-.642-.583-1.444-1.306-2.973-1.31-1.53-.003-2.324.699-2.964 1.289a4.92 4.92 0 01-.413.35l1.261 1.229c.124-.105.24-.21.353-.311zm0-7.454c.54-.492.933-.841 1.766-.841.834 0 1.247.349 1.798.859.64.576 1.434 1.292 2.931 1.3 1.498.006 2.335-.72 2.985-1.297.159-.143.307-.272.452-.384l-1.243-1.24-.385.35c-.551.495-.95.852-1.802.848-.85-.003-1.215-.35-1.766-.845-.642-.583-1.444-1.306-2.973-1.31-1.53-.003-2.324.699-2.964 1.289a4.9 4.9 0 01-.413.35l1.261 1.232c.124-.105.24-.21.353-.31zm-.001 3.727c.544-.489.936-.842 1.766-.838.83.003 1.247.349 1.798.859.64.576 1.434 1.292 2.931 1.3 1.498.006 2.335-.72 2.995-1.297a7.92 7.92 0 01.453-.384l-1.244-1.24-.385.35c-.55.495-.95.852-1.8.848-.852-.003-1.216-.349-1.767-.845-.643-.583-1.444-1.306-2.974-1.31-1.529-.003-2.324.699-2.963 1.29-.145.132-.279.25-.413.348l1.25 1.24c.124-.104.24-.21.353-.31" fill="#40BBC1"/><path d="M234.02 10.447l-5.901-3.842-15.869 31.434 5.916 2.756 1.847-.754 3.136-5.882h13.856l2.055 3.912h8.261v-1.156L234.02 10.447zm-7.957 16.912l3.963-8.19 4.069 8.19h-8.032zM54.917 10.447l-5.902-3.842-15.868 31.434 5.915 2.756 1.848-.754 3.136-5.882H57.9l2.06 3.912h8.257v-1.156l-13.3-26.468zm-7.943 16.912l3.963-8.19 4.065 8.19h-8.028zm48.321-4.946a7.138 7.138 0 001.984-2.39c.477-.93.741-1.953.774-2.996 0-5.386-4.867-9.88-10.949-9.88h-15.01v31.469h16.465c7.18 0 10.893-4.405 10.95-9.836 0-2.76-1.354-5.075-4.214-6.367zm-14.51-9.046h5.623c3.953 0 4.066 6.563.05 6.563h-5.672v-6.563zm7.181 18.784h-7.18v-6.483h7.127c4.175 0 4.2 6.483.053 6.483zm105.687-21.673l-5.05-3.332-12.033 24.572h-3.564v7.463l6.329 2.211 1.137-.9v-1.988h28.149v-6.786h-4.641l-10.327-21.24zm-7.996 21.149l4.87-11.26 5.069 11.26h-9.939zM35.721 13.38v-1.012L34.57 7.146H0v.807l1.254 5.428m121.563-6.235h-16.356v31.47l7.636 2.668 1.37-.838-.017-11.247h7.367c16.819 0 16.819-22.004 0-22.053zm-.049 16.067h-7.322v-9.878h7.322c7.212 0 6.94 9.881 0 9.881M141.32 7.684v31.33l5.8 2.225 13.534-14.747-.029 11.352c.064 0 5.602 1.704 5.602 1.704l1.413-.814V15.47l-7.018-1.784-12.362 13.499v-19.5M13.89 26.587v12.029l6.584 2.668 1.353-.838v-13.86" fill="#fff"/><path d="M234.36.182c.67.22 1.258.631 1.691 1.182a3.492 3.492 0 01.285 3.91 3.552 3.552 0 01-1.503 1.409 3.6 3.6 0 01-3.933-.487 3.524 3.524 0 01-1.104-1.732 3.486 3.486 0 01.054-2.047 3.51 3.51 0 01.687-1.197 3.564 3.564 0 012.442-1.21c.467-.033.937.025 1.381.172z" fill="#40BBC1"/></g><defs><clipPath id="clip0"><path fill="#fff" d="M0 0h249v55H0z"/></clipPath></defs></svg>
